public/icon_linkedin.svg

<?xml version="1.0" encoding="UTF-8"?>
<svg id="Layer_1" data-name="Layer 1" xmlns="http://www.w3.org/2000/svg" version="1.1" viewBox="0 0 1000 1000">
  <defs>
    <style>
      .cls-1 {
        fill: #000;
      }

      .cls-1, .cls-2 {
        stroke-width: 0px;
      }

      .cls-2 {
        fill: #f4f4f5;
      }
    </style>
  </defs>
  <path class="cls-1" d="M500,1000h0C223.9,1000,0,776.1,0,500h0C0,223.9,223.9,0,500,0h0c276.1,0,500,223.9,500,500h0c0,276.1-223.9,500-500,500Z"/>
  <g>
    <path class="cls-2" d="M184.2,387.3h132.9v427.7h-132.9v-427.7h0ZM250.7,174.7c42.5,0,77,34.5,77,77.1s-34.5,77.1-77,77.1-77.1-34.5-77.1-77.1c-.1-42.5,34.4-77.1,77.1-77.1"/>
    <path class="cls-2" d="M400.5,387.3h127.5v58.4h1.8c17.7-33.6,61-69.1,125.8-69.1,134.6,0,159.5,88.6,159.5,203.7v234.7h-132.9v-207.9c0-49.7-.9-113.4-69.1-113.4s-79.8,54-79.8,109.8v211.6h-132.8v-427.8Z"/>
  </g>
</svg>

<?xml version="1.0" encoding="utf-8"?>
<!-- Generator: Adobe Illustrator 27.1.1, SVG Export Plug-In . SVG Version: 6.00 Build 0)  -->
<svg version="1.1" id="Layer_1" xmlns="http://www.w3.org/2000/svg" xmlns:xlink="http://www.w3.org/1999/xlink" x="0px" y="0px"
	 viewBox="0 0 1000 1000" style="enable-background:new 0 0 1000 1000;" xml:space="preserve">
<style type="text/css">
	.st0{fill:#919191;}
	.st1{fill:#0B0D0E;}
</style>
<g>
	<path class="st0" d="M500,1000L500,1000C223.9,1000,0,776.1,0,500l0,0C0,223.9,223.9,0,500,0l0,0c276.1,0,500,223.9,500,500l0,0
		C1000,776.1,776.1,1000,500,1000z"/>
	<g>
		<g>
			<path class="st1" d="M184.2,387.3h132.9V815H184.2V387.3z M250.7,174.7c42.5,0,77,34.5,77,77.1s-34.5,77.1-77,77.1
				c-42.6,0-77.1-34.5-77.1-77.1C173.5,209.3,208,174.7,250.7,174.7"/>
			<path class="st1" d="M400.5,387.3H528v58.4h1.8c17.7-33.6,61-69.1,125.8-69.1c134.6,0,159.5,88.6,159.5,203.7V815H682.2V607.1
				c0-49.7-0.9-113.4-69.1-113.4c-69.2,0-79.8,54-79.8,109.8v211.6H400.5V387.3z"/>
		</g>
	</g>
</g>
</svg>
